( Made using CamBam - http://www.cambam.co.uk )
( 223 Mono Drilling Template dxf 3/16/2023 12:52:49 PM )
( Post processor: Default )
( T0 : 0.125 )
G20 G90 G64 G40
G0 Z0.125
( T0 : 0.125 )
T0 M6
( Pilot )
G17
M3 S1000
G0 X4.5 Y0.0
G98
G83 X4.5 Y0.0 Z-0.75 Q0.1 R0.125 F10.0
G83 X3.4213 Y-0.8964 Z-0.75
G83 X2.6863 Z-0.75
G83 X1.961 Y-0.6485 Z-0.75
G83 X1.211 Z-0.75
G83 X1.0 Y0.0 Z-0.75
G83 X0.5 Z-0.75
G83 X0.0 Z-0.75
G83 X-0.2784 Y-1.2757 Z-0.75
G83 X0.5 Y-1.5 Z-0.75
G83 X1.0 Y-1.4 Z-0.75
G83 X1.2391 Y-2.2789 Z-0.75
G83 X1.211 Y-2.5519 Z-0.75
G83 X1.2391 Y-2.7789 Z-0.75
G83 X1.0 Y-3.15 Z-0.75
G83 X1.711 Y-2.5519 Z-0.75
G83 X3.2391 Y-2.5289 Z-0.75
G83 X3.3937 Y-1.7051 Z-0.75
G83 X3.0 Y0.0 Z-0.75
G83 X2.5 Z-0.75
G83 X3.7133 Y-3.5145 Z-0.75
G83 Y-3.8055 Z-0.75
G83 X4.0 Y-4.3792 Z-0.75
G83 Y-4.8792 Z-0.75
G83 X3.7133 Y-4.9145 Z-0.75
G83 X4.4633 Y-4.0763 Z-0.75
G83 X4.5 Y-3.6664 Z-0.75
G83 Y-3.1872 Z-0.75
G83 X0.5 Y-4.3792 Z-0.75
G83 Y-4.8792 Z-0.75
G83 X0.0367 Y-4.0763 Z-0.75
G83 X-0.7133 Y-3.8055 Z-0.75
G83 X-1.0 Y-4.3792 Z-0.75
G83 Y-4.8792 Z-0.75
G83 X-0.7133 Y-4.9145 Z-0.75
G83 X-2.3237 Z-0.75
G83 X-2.75 Y-4.8792 Z-0.75
G83 X-2.125 Y-3.6664 Z-0.75
G83 Y-3.1872 Z-0.75
G83 X-1.5 Y-3.3792 Z-0.75
G83 X-4.0 Z-0.75
G83 X-5.2051 Y-1.9447 Z-0.75
G83 Y-1.4447 Z-0.75
G83 X-5.2937 Y-0.8976 Z-0.75
G83 X-5.7051 Y-1.6966 Z-0.75
G83 X-6.033 Y-1.6644 Z-0.75
G83 X-6.3512 Y-1.5598 Z-0.75
G83 X-7.2051 Y-1.6947 Z-0.75
G83 X-7.8625 Y-1.1476 Z-0.75
G83 Y-0.6476 Z-0.75
G83 X-5.4922 Y0.0 Z-0.75
G83 X-6.3447 Y-2.6238 Z-0.75
G83 X-6.5274 Y-3.1861 Z-0.75
G83 X-6.25 Y-4.8792 Z-0.75
G83 X-2.9034 Y-1.2757 Z-0.75
G80
G0 Z0.125
M5
M30
