( Made using CamBam - http://www.cambam.co.uk )
( Post Processor Tormach-Mach3- P.Fink 29.3.2010 und spaeter. Use at your risk. )
( Post Processor Tormach-Path Pilot- K.Gideon 22.5.2015 just some tweaks for PP Use at your risk. )
( 223 Mono Drilling Template cam 3/16/2023 2:43:33 PM )
G20 G90 G64 P0.001 G40 G49 G50 G17 G80 G94
M998
( T133 : 0.125 )
T133 G43 H133 M6
G0 Z1.0
( Spotter )
S3000 M3
M08
G0 X4.5 Y0.0
G98
G81 X4.5 Y0.0 Z-0.05 R1.0 F10.0
G81 X3.42126 Y-0.89635 Z-0.05 R1.0
G81 X2.68626 Z-0.05 R1.0
G81 X1.96102 Y-0.64853 Z-0.05 R1.0
G81 X1.21102 Z-0.05 R1.0
G81 X1.0 Y0.0 Z-0.05 R1.0
G81 X0.5 Z-0.05 R1.0
G81 X0.0 Z-0.05 R1.0
G81 X-0.27839 Y-1.27572 Z-0.05 R1.0
G81 X0.5 Y-1.5 Z-0.05 R1.0
G81 X1.0 Y-1.4 Z-0.05 R1.0
G81 X1.23909 Y-2.27886 Z-0.05 R1.0
G81 X1.21102 Y-2.55185 Z-0.05 R1.0
G81 X1.23909 Y-2.77886 Z-0.05 R1.0
G81 X1.0 Y-3.15 Z-0.05 R1.0
G81 X1.71102 Y-2.55185 Z-0.05 R1.0
G81 X3.23909 Y-2.52886 Z-0.05 R1.0
G81 X3.3937 Y-1.70514 Z-0.05 R1.0
G81 X3.0 Y0.0 Z-0.05 R1.0
G81 X2.5 Z-0.05 R1.0
G81 X3.71335 Y-3.51454 Z-0.05 R1.0
G81 Y-3.80554 Z-0.05 R1.0
G81 X4.0 Y-4.37924 Z-0.05 R1.0
G81 Y-4.87924 Z-0.05 R1.0
G81 X3.71335 Y-4.91454 Z-0.05 R1.0
G81 X4.46335 Y-4.07634 Z-0.05 R1.0
G81 X4.5 Y-3.66644 Z-0.05 R1.0
G81 Y-3.18722 Z-0.05 R1.0
G81 X0.5 Y-4.37924 Z-0.05 R1.0
G81 Y-4.87924 Z-0.05 R1.0
G81 X0.03665 Y-4.07634 Z-0.05 R1.0
G81 X-0.71335 Y-3.80554 Z-0.05 R1.0
G81 X-1.0 Y-4.37924 Z-0.05 R1.0
G81 Y-4.87924 Z-0.05 R1.0
G81 X-0.71335 Y-4.91454 Z-0.05 R1.0
G81 X-2.32365 Z-0.05 R1.0
G81 X-2.75 Y-4.87924 Z-0.05 R1.0
G81 X-2.125 Y-3.66644 Z-0.05 R1.0
G81 Y-3.18722 Z-0.05 R1.0
G81 X-1.5 Y-3.37924 Z-0.05 R1.0
G81 X-4.0 Z-0.05 R1.0
G81 X-5.2051 Y-1.94474 Z-0.05 R1.0
G81 Y-1.44474 Z-0.05 R1.0
G81 X-5.2937 Y-0.89758 Z-0.05 R1.0
G81 X-5.7051 Y-1.69664 Z-0.05 R1.0
G81 X-6.03298 Y-1.66436 Z-0.05 R1.0
G81 X-6.35119 Y-1.5598 Z-0.05 R1.0
G81 X-7.2051 Y-1.69474 Z-0.05 R1.0
G81 X-7.86247 Y-1.14758 Z-0.05 R1.0
G81 Y-0.64758 Z-0.05 R1.0
G81 X-5.49224 Y0.0 Z-0.05 R1.0
G81 X-6.34468 Y-2.62377 Z-0.05 R1.0
G81 X-6.52737 Y-3.18606 Z-0.05 R1.0
G81 X-6.25 Y-4.87924 Z-0.05 R1.0
G81 X-2.90339 Y-1.27572 Z-0.05 R1.0
G80
G0 Z1.0
M09
M5
M998
M30
